src/lib/packages/icons/src/assets/line/file-list-heart.svg

<svg xmlns="http://www.w3.org/2000/svg" width="24" height="24" fill="none"><path fill="currentColor" d="M7.75 12a.75.75 0 1 1-1.5 0 .75.75 0 0 1 1.5 0ZM7 15.25a.75.75 0 1 0 0 1.5.75.75 0 0 0 0-1.5Zm2.5-4a.75.75 0 0 0 0 1.5H14a.75.75 0 0 0 0-1.5H9.5Zm1.5 4H9.5a.75.75 0 0 0 0 1.5H11a.75.75 0 0 0 0-1.5Zm10.669 3.25c-.524 2.664-3.727 4.124-3.862 4.185a.746.746 0 0 1-.614 0c-.136-.061-3.338-1.521-3.863-4.185-.214-1.083-.001-2.112.58-2.823.494-.602 1.199-.922 2.039-.926h.013c.66 0 1.169.256 1.538.588a2.244 2.244 0 0 1 1.538-.588h.013c.842.004 1.547.324 2.04.926.581.711.792 1.74.578 2.823Zm-1.74-1.874c-.205-.251-.495-.374-.886-.376h-.004c-.579 0-.808.576-.832.642a.757.757 0 0 1-.705.496h-.01a.745.745 0 0 1-.702-.505c-.021-.057-.25-.633-.83-.633h-.003c-.39.002-.679.125-.885.376-.294.359-.396.951-.271 1.583.297 1.503 1.993 2.567 2.698 2.949.705-.383 2.401-1.446 2.698-2.95.125-.631.025-1.223-.268-1.582ZM11.75 21a.75.75 0 0 1-.75.75H6c-2.418 0-3.75-1.332-3.75-3.75V6c0-2.418 1.332-3.75 3.75-3.75h6c.199 0 .39.079.53.22l6 6c.141.141.22.331.22.53v3a.75.75 0 0 1-1.5 0V9.75H15c-2.418 0-3.75-1.332-3.75-3.75V3.75H6c-1.577 0-2.25.673-2.25 2.25v12c0 1.577.673 2.25 2.25 2.25h5a.75.75 0 0 1 .75.75ZM15 8.25h1.189L12.75 4.811V6c0 1.577.673 2.25 2.25 2.25Z"/></svg>

<svg width="24" height="24" viewBox="0 0 24 24" fill="none" xmlns="http://www.w3.org/2000/svg">
<path d="M7.75 12C7.75 12.414 7.414 12.75 7 12.75C6.586 12.75 6.25 12.414 6.25 12C6.25 11.586 6.586 11.25 7 11.25C7.414 11.25 7.75 11.586 7.75 12ZM7 15.25C6.586 15.25 6.25 15.586 6.25 16C6.25 16.414 6.586 16.75 7 16.75C7.414 16.75 7.75 16.414 7.75 16C7.75 15.586 7.414 15.25 7 15.25ZM9.5 11.25C9.086 11.25 8.75 11.586 8.75 12C8.75 12.414 9.086 12.75 9.5 12.75H14C14.414 12.75 14.75 12.414 14.75 12C14.75 11.586 14.414 11.25 14 11.25H9.5ZM11 15.25H9.5C9.086 15.25 8.75 15.586 8.75 16C8.75 16.414 9.086 16.75 9.5 16.75H11C11.414 16.75 11.75 16.414 11.75 16C11.75 15.586 11.414 15.25 11 15.25ZM21.6689 18.5C21.1449 21.164 17.9419 22.624 17.8069 22.685C17.7089 22.729 17.605 22.75 17.5 22.75C17.395 22.75 17.2911 22.728 17.1931 22.685C17.0571 22.624 13.8551 21.164 13.3301 18.5C13.1161 17.417 13.3289 16.388 13.9109 15.677C14.4039 15.075 15.109 14.755 15.949 14.751C15.953 14.751 15.9579 14.751 15.9619 14.751C16.6229 14.751 17.131 15.007 17.5 15.339C17.869 15.006 18.3771 14.751 19.0381 14.751C19.0421 14.751 19.046 14.751 19.051 14.751C19.893 14.755 20.5981 15.075 21.0901 15.677C21.6721 16.388 21.8829 17.417 21.6689 18.5ZM19.929 16.626C19.724 16.375 19.434 16.252 19.043 16.25C19.042 16.25 19.0411 16.25 19.0391 16.25C18.4601 16.25 18.231 16.826 18.207 16.892C18.099 17.187 17.815 17.388 17.502 17.388C17.498 17.388 17.4949 17.388 17.4919 17.388C17.1739 17.384 16.891 17.185 16.79 16.883C16.769 16.826 16.5399 16.25 15.9609 16.25C15.9589 16.25 15.958 16.25 15.957 16.25C15.567 16.252 15.278 16.375 15.072 16.626C14.778 16.985 14.676 17.577 14.801 18.209C15.098 19.712 16.794 20.776 17.499 21.158C18.204 20.775 19.9 19.712 20.197 18.208C20.322 17.577 20.222 16.985 19.929 16.626ZM11.75 21C11.75 21.414 11.414 21.75 11 21.75H6C3.582 21.75 2.25 20.418 2.25 18V6C2.25 3.582 3.582 2.25 6 2.25H12C12.199 2.25 12.39 2.329 12.53 2.47L18.53 8.47C18.671 8.611 18.75 8.801 18.75 9V12C18.75 12.414 18.414 12.75 18 12.75C17.586 12.75 17.25 12.414 17.25 12V9.75H15C12.582 9.75 11.25 8.418 11.25 6V3.75H6C4.423 3.75 3.75 4.423 3.75 6V18C3.75 19.577 4.423 20.25 6 20.25H11C11.414 20.25 11.75 20.586 11.75 21ZM15 8.25H16.189L12.75 4.811V6C12.75 7.577 13.423 8.25 15 8.25Z" fill="currentColor"/>
</svg>
